packages/foundations/assets/icons/functional/images/human/hand_washing_24.svg

<svg width="24" height="24" viewBox="0 0 24 24" fill="none" xmlns="http://www.w3.org/2000/svg">
<g clip-path="url(#clip0_185_1140)">
<path fill-rule="evenodd" clip-rule="evenodd" d="M16.0179 13.6625C17.56 13.6625 19.056 14.1717 20.2755 15.1062L21.6257 16.2296C22.0489 16.5845 22.1043 17.2152 21.7495 17.6384C21.4219 18.029 20.8593 18.1063 20.4418 17.8367L19.2306 16.8313C18.3995 16.1344 17.1636 15.6772 16.2883 15.6698C15.7047 15.665 14.9716 15.6625 14.0891 15.6625C13.7041 15.6625 13.3702 15.9284 13.2838 16.3035C13.2549 16.429 13.3332 16.5541 13.4587 16.5829L16.0484 16.7478C16.5997 16.7822 17.0186 17.257 16.9842 17.8082C16.9522 18.32 16.5381 18.7434 15.982 18.7434L13.431 18.5952C12.8622 18.5432 12.3963 18.362 11.6527 18.082C11.157 17.8953 10.1571 17.5298 8.65302 16.9853C8.14955 16.8022 7.58538 16.9588 7.24826 17.3751C7.16146 17.4824 7.17026 17.6818 7.33803 17.7593C7.44988 17.8109 8.60719 18.3431 10.81 19.3557C11.6253 19.7306 12.5041 19.9448 13.3984 19.9878L20.9832 19.9959C21.5355 19.9959 21.9832 20.4436 21.9832 20.9959C21.9832 21.5087 21.5814 21.9959 20.9832 21.9959H13.7344C12.5662 21.9959 11.4104 21.7684 10.3312 21.3276C7.66473 20.1315 6.22988 19.4492 6.02664 19.2808C5.07727 18.4942 4.91202 17.0822 5.69391 16.1166C6.52644 15.0884 7.893 14.6712 9.14901 15.0439L11.3408 15.8338C11.6496 14.5443 12.8486 13.6737 13.9107 13.6681C14.6187 13.6644 15.3211 13.6625 16.0179 13.6625ZM9.34046 11.5262C9.75467 11.5262 10.0905 11.862 10.0905 12.2762C10.0905 12.6904 9.75467 13.0262 9.34046 13.0262C8.92624 13.0262 8.59046 12.6904 8.59046 12.2762C8.59046 11.862 8.92624 11.5262 9.34046 11.5262ZM12.8405 10.7762C13.2547 10.7762 13.5905 11.112 13.5905 11.5262C13.5905 11.9404 13.2547 12.2762 12.8405 12.2762C12.4262 12.2762 12.0905 11.9404 12.0905 11.5262C12.0905 11.112 12.4262 10.7762 12.8405 10.7762ZM5.84037 10.7423C6.25459 10.7423 6.59037 11.0781 6.59037 11.4923C6.59037 11.9065 6.25459 12.2423 5.84037 12.2423C5.42616 12.2423 5.09037 11.9065 5.09037 11.4923C5.09037 11.0781 5.42616 10.7423 5.84037 10.7423ZM9.34046 8.77617C9.75467 8.77617 10.0905 9.11196 10.0905 9.52617C10.0905 9.94038 9.75467 10.2762 9.34046 10.2762C8.92624 10.2762 8.59046 9.94038 8.59046 9.52617C8.59046 9.11196 8.92624 8.77617 9.34046 8.77617ZM12.3405 8.27617C12.7547 8.27617 13.0905 8.61196 13.0905 9.02617C13.0905 9.44038 12.7547 9.77617 12.3405 9.77617C11.9262 9.77617 11.5905 9.44038 11.5905 9.02617C11.5905 8.61196 11.9262 8.27617 12.3405 8.27617ZM6.34046 8.25463C6.75467 8.25463 7.09046 8.59041 7.09046 9.00463C7.09046 9.41884 6.75467 9.75463 6.34046 9.75463C5.92624 9.75463 5.59046 9.41884 5.59046 9.00463C5.59046 8.59041 5.92624 8.25463 6.34046 8.25463ZM9.98321 2.00579C11.5809 2.00579 12.9832 3.25243 12.9832 5.00579C12.9832 5.58707 12.9832 6.26053 12.9832 7.02617H7.00409C6.45181 7.02617 6.00409 6.57846 6.00409 6.02617C6.00409 5.51334 6.34046 5.02617 7.00409 5.02617C8.9932 5.02276 10.0637 5.02617 10.9832 5.02587C10.9832 4.48148 10.718 4.00579 9.98321 4.00579C7.66135 4.00358 5.33919 4.00358 3.01672 4.00579C2.46444 4.00579 2.01672 3.55807 2.01672 3.00579C2.01672 2.49295 2.42088 2.00579 3.01672 2.00579C5.33858 2.00358 7.66075 2.00358 9.98321 2.00579Z" fill="#1A1C1F"/>
</g>
<defs>
<clipPath id="clip0_185_1140">
<rect width="24" height="24" fill="white"/>
</clipPath>
</defs>
</svg>

<svg xmlns="http://www.w3.org/2000/svg" width="24" height="24" fill="none"><g clip-path="url(#a)"><path fill="#1A1C1F" fill-rule="evenodd" d="M16.018 13.663a7 7 0 0 1 4.258 1.443l1.35 1.124a1 1 0 0 1-1.184 1.607L19.23 16.83c-.832-.697-2.067-1.154-2.943-1.161q-.875-.008-2.199-.008a.826.826 0 0 0-.805.641c-.03.126.05.251.175.28l2.59.165a1 1 0 0 1-.067 1.995l-2.551-.148c-.569-.052-1.035-.233-1.778-.513q-.744-.28-3-1.097a1.255 1.255 0 0 0-1.405.39c-.087.107-.078.307.09.384l3.472 1.597a7 7 0 0 0 2.588.632l7.585.008a1 1 0 0 1 1 1c0 .513-.402 1-1 1h-7.249a9 9 0 0 1-3.403-.668q-4-1.795-4.304-2.047c-.95-.787-1.115-2.199-.333-3.164a3.26 3.26 0 0 1 3.455-1.073l2.192.79c.309-1.29 1.508-2.16 2.57-2.166q1.062-.006 2.107-.005M9.34 11.526a.75.75 0 1 1 0 1.5.75.75 0 0 1 0-1.5m3.5-.75a.75.75 0 1 1 0 1.5.75.75 0 0 1 0-1.5m-7-.034a.75.75 0 1 1 0 1.5.75.75 0 0 1 0-1.5m3.5-1.966a.75.75 0 1 1 0 1.5.75.75 0 0 1 0-1.5m3-.5a.75.75 0 1 1 0 1.5.75.75 0 0 1 0-1.5m-6-.021a.75.75 0 1 1 0 1.5.75.75 0 0 1 0-1.5m3.643-6.25c1.598 0 3 1.247 3 3v2.021H7.004a1 1 0 0 1-1-1c0-.513.336-1 1-1 1.99-.003 3.06 0 3.98 0 0-.545-.266-1.02-1-1.02a3660 3660 0 0 0-6.967 0 1 1 0 0 1 0-2q3.483-.003 6.966 0" clip-rule="evenodd"/></g><defs><clipPath id="a"><path fill="#fff" d="M0 0h24v24H0z"/></clipPath></defs></svg>
